X:112
T:Plus dure qu'un dyamant
R:Virelai
C:Guillaume de Machault
O:1300-1305?-1377
M:3
P:ABBAA
K:Dm
P:A
V:1
P:A
d2ede2 | c=B2cA2 | ^c2(c2=B2) | d4z2 | "(=)"ba (gf2g) | e2(e2d2) | 
(ef2g) e2 | gf (ed2e) | "(#)"c2d4 | A4z2 | (c=Bc2)A2 | (A3=B)c2 |
d2(ede2) | gf (ed2e) | ^c2d4 | e4z2 | "(=)"ba (gf2g) |
e2(e2A2) | A3=Bc2 | dz (fe2f) | d2(^c=Bc2) | d6 !fine!|:
P:B
a2(a2d2) | e2aga2 | (fe2f) d2 | e2z4 | A3=Bc2 | (dcd2) =Bc |
d3cd2 |1 ez (ag2a) | (fe2f) d2 | e6 :|2 ez (fe2f) | d2 (^cBc2) | d6 !D.C.! ||
V:2
G6 | F6 | E6 | D6 | d6 | ^c2z2d2 |
z2A4 | G6 | z2D4 | D6 | z2F4 | AGA2F2 |
G6 | G3^FG2 | AGA2F2 | E6 | D6 |
E4z2 | AGA2F2 | G3AG2 | F2E4 | D6 |:
d6 | z2A4 | BA2G F2 | E6 | D2E4 | G3FE2 |
D6 | z2d4 | d^c2dB2 | ^c6 :| z2 D4 | F2E4 | D6 ||




%%header "$P0	 $IR 	$P1"
%%footer $D - Éditions Galouvielle - 2009 - À usage librement privé dans le cadre familial

